X: 540
T:Barney Bralligan
R:slip jig
D:Matt Molloy: Stony Steps
Z:Henrik Norbeck : id:hn-slipjig-47
M:9/8
% TUNEdb Number 1720
N:Posted to the woodenflute mailing list June 2002
K:D
F2A A2B A3|F2A A2A Bcd|F2A A2B A3|e2f e2d B2A:|
|:f2a a2f d3|e2f e2d B2A|f2d e2c d3|B2=c B2A FED:|

